src/img/icons/arrow-left.svg

<svg width="32" height="32" viewBox="0 0 32 32" fill="none" xmlns="http://www.w3.org/2000/svg">
<path d="M8.11214 16.9482L16.4314 25.3644C16.6107 25.5539 16.703 25.7756 16.7083 26.0296C16.7138 26.2836 16.6188 26.5081 16.4235 26.7032C16.2282 26.8985 16.0073 26.9974 15.7608 26.9999C15.5143 27.0027 15.2934 26.9052 15.0981 26.7074L5.34092 16.8245C5.21879 16.7005 5.13137 16.5714 5.07867 16.437C5.02622 16.3024 5 16.1546 5 15.9934C5 15.832 5.02622 15.6845 5.07867 15.551C5.13137 15.4174 5.21879 15.2886 5.34092 15.1647L15.0981 5.28174C15.2786 5.09884 15.4952 5.00498 15.7477 5.00018C16.0004 4.99537 16.2257 5.08922 16.4235 5.28174C16.6188 5.48235 16.7165 5.70814 16.7165 5.95909C16.7165 6.21005 16.6188 6.43128 16.4235 6.62279L8.11214 15.0409H26.0585C26.33 15.0409 26.5548 15.1313 26.7329 15.3119C26.911 15.4923 27 15.7198 27 15.9946C27 16.2695 26.911 16.4972 26.7329 16.6776C26.5548 16.858 26.33 16.9482 26.0585 16.9482H8.11214Z" fill="#131212"/>
</svg>

<svg xmlns="http://www.w3.org/2000/svg" viewBox="0 0 32 32">
  <path fill="currentColor" d="m8.112 16.948 8.32 8.416a.97.97 0 0 1 .276.666.896.896 0 0 1-.284.673.929.929 0 0 1-.663.297c-.247.003-.468-.095-.663-.293l-9.757-9.883a1.162 1.162 0 0 1-.262-.387A1.212 1.212 0 0 1 5 15.993a1.2 1.2 0 0 1 .079-.442c.052-.134.14-.262.262-.386l9.757-9.883a.917.917 0 0 1 1.325 0c.196.2.294.426.294.677a.903.903 0 0 1-.293.664L8.112 15.04H26.06c.271 0 .496.09.674.27a.936.936 0 0 1 .267.684.932.932 0 0 1-.267.683.908.908 0 0 1-.675.27H8.112Z"/>
</svg>
